X:3
T:Tour - Trois jeunes marins
C:Y. Dour 6
M:4/4
L:1/8
K:G
A2BcB3G|A2c2BBA2|A2BcB3G|A2c2B2A2:|\
|:G2FGA3B|c2B2AG FA|G2ABA2G2|B2A2G4:|
%%center Suite An dro (Skolvan)
